assets/images/misc/spiral_arrow.svg

<svg width="65" height="73" viewBox="0 0 65 73" fill="none" xmlns="http://www.w3.org/2000/svg">
<path d="M45.8969 0.307177C58.8078 5.77063 67.3968 19.4571 63.6212 33.5351C60.8884 43.7275 51.1016 51.2376 40.8907 50.9931C33.214 60.7905 19.8872 64.8673 7.42796 66.1562L11.6538 68.6671C14.1097 70.118 11.8913 73.9739 9.44177 72.5046C6.78356 70.9238 4.13232 69.3691 1.49662 67.7263C1.21588 67.5563 0.976889 67.3254 0.797243 67.0507C0.617598 66.7759 0.501861 66.4642 0.45857 66.1386C0.415279 65.813 0.445527 65.4817 0.54709 65.1691C0.648653 64.8566 0.818944 64.5707 1.04543 64.3326C3.46199 61.446 5.85888 58.4027 8.6463 55.8577C8.86785 55.6425 9.15911 55.5138 9.46716 55.4951C9.77522 55.4764 10.0796 55.5688 10.3251 55.7557C10.5706 55.9425 10.7408 56.2114 10.805 56.5134C10.8691 56.8154 10.8228 57.1305 10.6745 57.4015C9.60989 59.3863 8.42387 61.3035 7.12319 63.1422C18.1459 62.1006 29.8447 59.0995 37.3639 50.5908C35.7664 50.2624 34.2146 49.7423 32.7421 49.0417C22.5632 44.1834 15.7213 26.8631 26.9416 19.1568C32.4093 15.3979 39.6566 17.9051 43.3293 22.9178C47.3115 28.3558 47.7064 35.7718 45.6583 42.0353C44.9363 44.252 43.9521 46.3746 42.7266 48.358C50.878 47.8384 58.5522 41.7637 61.1189 33.7454C65.3648 20.4013 57.1928 7.22847 45.038 1.75132C44.0364 1.32819 44.9074 -0.0912982 45.8969 0.307177ZM43.9449 33.6388C43.6793 27.6019 40.0004 20.4392 33.1797 20.2537C26.6575 20.0772 23.6447 27.098 24.1887 32.7357C24.5177 35.5065 25.4891 38.1612 27.0253 40.4884C28.5616 42.8155 30.6202 44.7508 33.0372 46.1399C34.9497 47.2401 37.0582 47.9571 39.2454 48.2508C42.2516 44.0206 44.167 38.8882 43.9397 33.6402L43.9449 33.6388Z" fill="#87C1E6"/>
</svg>

<svg xmlns="http://www.w3.org/2000/svg" width="65" height="73" fill="none"><path fill="#87C1E6" d="M45.897.307c12.91 5.464 21.5 19.15 17.724 33.228-2.733 10.193-12.52 17.703-22.73 17.458-7.677 9.798-21.004 13.874-33.463 15.163l4.226 2.511c2.456 1.451.237 5.307-2.212 3.838-2.658-1.581-5.31-3.136-7.945-4.779a2.19 2.19 0 0 1-.95-2.557 2.2 2.2 0 0 1 .498-.836c2.417-2.887 4.814-5.93 7.601-8.475a1.29 1.29 0 0 1 1.68-.102 1.29 1.29 0 0 1 .348 1.645 55 55 0 0 1-3.55 5.741c11.022-1.041 22.72-4.043 30.24-12.551a20.3 20.3 0 0 1-4.622-1.55c-10.179-4.858-17.02-22.178-5.8-29.884 5.467-3.76 12.715-1.252 16.387 3.76 3.983 5.439 4.377 12.855 2.33 19.118a29.3 29.3 0 0 1-2.932 6.323c8.151-.52 15.825-6.594 18.392-14.613 4.246-13.344-3.926-26.517-16.081-31.994-1.002-.423-.13-1.842.859-1.444M43.945 33.64c-.266-6.037-3.945-13.2-10.765-13.385-6.523-.177-9.535 6.844-8.991 12.482a17.88 17.88 0 0 0 8.848 13.404 17 17 0 0 0 6.208 2.11c3.007-4.23 4.922-9.362 4.695-14.61z"/></svg>
